symbols/web/account_balance/materialsymbolsrounded/account_balance_wght300gradN25_24px.svg

<svg xmlns="http://www.w3.org/2000/svg" height="24" width="24"><path d="M6.65 17q-.275 0-.488-.2-.212-.2-.212-.5v-6.275q0-.275.212-.475.213-.2.488-.2.3 0 .5.212.2.213.2.488v6.275q0 .275-.2.475-.2.2-.5.2ZM12 17q-.275 0-.487-.2-.213-.2-.213-.5v-6.275q0-.275.213-.475.212-.2.487-.2.3 0 .5.212.2.213.2.488v6.275q0 .275-.2.475-.2.2-.5.2Zm-8.3 3.3q-.3 0-.5-.213-.2-.212-.2-.487 0-.3.213-.5.212-.2.512-.2h16.6q.275 0 .475.2.2.2.2.5 0 .275-.212.487-.213.213-.488.213ZM17.35 17q-.3 0-.5-.2t-.2-.5v-6.275q0-.275.2-.475.2-.2.5-.2.275 0 .487.212.213.213.213.488v6.275q0 .275-.213.475-.212.2-.487.2Zm-4.6-14.85 7.725 3.75q.225.1.375.325t.15.5q0 .3-.237.512-.238.213-.563.213H3.8q-.325 0-.563-.213Q3 7.025 3 6.725q0-.275.15-.488.15-.212.4-.337l7.7-3.75q.35-.175.75-.175t.75.175Zm-6.4 3.9h11.3Zm0 0h11.3L12 3.35Z"/></svg>

<svg xmlns="http://www.w3.org/2000/svg" height="24" width="24"><path d="M6.65 17Q6.375 17 6.162 16.8Q5.95 16.6 5.95 16.3V10.025Q5.95 9.75 6.162 9.55Q6.375 9.35 6.65 9.35Q6.95 9.35 7.15 9.562Q7.35 9.775 7.35 10.05V16.325Q7.35 16.6 7.15 16.8Q6.95 17 6.65 17ZM12 17Q11.725 17 11.513 16.8Q11.3 16.6 11.3 16.3V10.025Q11.3 9.75 11.513 9.55Q11.725 9.35 12 9.35Q12.3 9.35 12.5 9.562Q12.7 9.775 12.7 10.05V16.325Q12.7 16.6 12.5 16.8Q12.3 17 12 17ZM3.7 20.3Q3.4 20.3 3.2 20.087Q3 19.875 3 19.6Q3 19.3 3.213 19.1Q3.425 18.9 3.725 18.9H20.325Q20.6 18.9 20.8 19.1Q21 19.3 21 19.6Q21 19.875 20.788 20.087Q20.575 20.3 20.3 20.3ZM17.35 17Q17.05 17 16.85 16.8Q16.65 16.6 16.65 16.3V10.025Q16.65 9.75 16.85 9.55Q17.05 9.35 17.35 9.35Q17.625 9.35 17.837 9.562Q18.05 9.775 18.05 10.05V16.325Q18.05 16.6 17.837 16.8Q17.625 17 17.35 17ZM12.75 2.15 20.475 5.9Q20.7 6 20.85 6.225Q21 6.45 21 6.725Q21 7.025 20.763 7.237Q20.525 7.45 20.2 7.45H3.8Q3.475 7.45 3.237 7.237Q3 7.025 3 6.725Q3 6.45 3.15 6.237Q3.3 6.025 3.55 5.9L11.25 2.15Q11.6 1.975 12 1.975Q12.4 1.975 12.75 2.15ZM6.35 6.05H12H17.65ZM6.35 6.05H17.65L12 3.35Z"/></svg>
